X: 152
T: Salamanca
R: reel
M: 4/4
L: 1/8
K:Dmaj
dB|"D"ADFD ADFD|Adcd fedc|"Em"BEGE BEGE|Beed "A"cdeg|
"Bm"f~B3 f~B3|fdec "D"dfag|fdec "G"dBAG|"D"FGEF D2:|
|: "D"fg|afdg "G"bgeg|"D"fdec dcBc|Addc defg|"A"~a3b a2fg|
"D"~a3f "G"~g3e|"D"fdec dfag|fdec "G"dBAG|"D"FGEF D2:|


